resources/images/ams_rfid_7.svg

<svg width="30" height="30" xmlns="http://www.w3.org/2000/svg" fill="none">
 <defs>
  <clipPath id="clip0_7112_29417">
   <rect id="svg_1" fill="white" height="30" width="30"/>
  </clipPath>
 </defs>
 <g>
  <title>Layer 1</title>
  <g id="svg_2" clip-path="url(#clip0_7112_29417)">
   <path id="svg_3" stroke="black" d="m31.1539,-1.15234l-32.30771,0l0,32.30764l32.30771,0l0,-32.30764z"/>
   <path id="svg_4" fill="#6B6B6B" d="m20.8872,8.52665c-1.174,-1.06775 -2.6186,-1.79796 -4.1801,-2.10858c-1.6974,-0.33762 -3.4567,-0.16434 -5.0556,0.49793c-1.5989,0.66227 -2.96544,1.78379 -3.92691,3.2227c-0.96147,1.439 -1.47465,3.1307 -1.47465,4.8613c0,1.7306 0.51318,3.4223 1.47465,4.8613c0.96147,1.4389 2.32801,2.5604 3.92691,3.2227c1.5989,0.6623 3.3582,0.8356 5.0556,0.4979c1.6973,-0.3376 3.2564,-1.1709 4.4801,-2.3947l0.5303,0.5303l0.5304,0.5304l0.5303,0.5303c-0.3562,0.3562 -0.735,0.6861 -1.1333,0.988c-1.3221,1.0021 -2.8592,1.6963 -4.4989,2.0224c-2.1338,0.4245 -4.3455,0.2066 -6.3555,-0.6259c-2.01001,-0.8326 -3.72797,-2.2425 -4.93667,-4.0514c-1.20869,-1.809 -1.85383,-3.9357 -1.85383,-6.1113c0,-2.1756 0.64514,-4.3023 1.85383,-6.11127c1.2087,-1.80894 2.92666,-3.21884 4.93667,-4.0514c2.01,-0.83256 4.2217,-1.0504 6.3555,-0.62596c1.6397,0.32616 3.1768,1.02035 4.4989,2.02245c0.2889,0.21899 0.5675,0.45269 0.8347,0.70047l1.7503,-1.75035c0.1549,-0.15486 0.4201,-0.06025 0.4418,0.15768l0.5618,5.60788c0.0164,0.1632 -0.121,0.3006 -0.2842,0.2842l-5.608,-0.5617c-0.2178,-0.0218 -0.3124,-0.287 -0.1576,-0.4419l1.7035,-1.70345z" clip-rule="evenodd" fill-rule="evenodd"/>
  </g>
 </g>
</svg>

<svg width="30" height="30" viewBox="0 0 30 30" fill="none" xmlns="http://www.w3.org/2000/svg">
<g clip-path="url(#clip0_10670_19514)">
<mask id="mask0_10670_19514" style="mask-type:luminance" maskUnits="userSpaceOnUse" x="0" y="0" width="30" height="30">
<path d="M30 0H0V30H30V0Z" fill="white"/>
</mask>
<g mask="url(#mask0_10670_19514)">
<path d="M31.1534 -1.15234H-1.1543V31.1553H31.1534V-1.15234Z" stroke="black"/>
<path fill-rule="evenodd" clip-rule="evenodd" d="M20.8872 8.52665C19.7132 7.4589 18.2686 6.72869 16.7071 6.41807C15.0097 6.08045 13.2504 6.25373 11.6515 6.916C10.0526 7.57827 8.68606 8.69979 7.72459 10.1387C6.76312 11.5777 6.24994 13.2694 6.24994 15C6.24994 16.7306 6.76312 18.4223 7.72459 19.8613C8.68606 21.3002 10.0526 22.4217 11.6515 23.084C13.2504 23.7463 15.0097 23.9196 16.7071 23.5819C18.4044 23.2443 19.9635 22.411 21.1872 21.1872L21.7175 21.7175L22.2479 22.2479L22.7782 22.7782C22.422 23.1344 22.0432 23.4643 21.6449 23.7662C20.3228 24.7683 18.7857 25.4625 17.146 25.7886C15.0122 26.2131 12.8005 25.9952 10.7905 25.1627C8.78049 24.3301 7.06253 22.9202 5.85383 21.1113C4.64514 19.3023 4 17.1756 4 15C4 12.8244 4.64514 10.6977 5.85383 8.88873C7.06253 7.07979 8.78049 5.66989 10.7905 4.83733C12.8005 4.00477 15.0122 3.78693 17.146 4.21137C18.7857 4.53753 20.3228 5.23172 21.6449 6.23382C21.9338 6.45281 22.2124 6.68651 22.4796 6.93429L24.2299 5.18394C24.3848 5.02908 24.65 5.12369 24.6717 5.34162L25.2335 10.9495C25.2499 11.1127 25.1125 11.2501 24.9493 11.2337L19.3413 10.672C19.1235 10.6502 19.0289 10.385 19.1837 10.2301L20.8872 8.52665Z" fill="#6B6B6B"/>
</g>
</g>
<defs>
<clipPath id="clip0_10670_19514">
<rect width="30" height="30" fill="white"/>
</clipPath>
</defs>
</svg>
